blockchains/litecoin/logo.svg

<svg fill="none" height="250" viewBox="0 0 250 250" width="250" xmlns="http://www.w3.org/2000/svg" xmlns:xlink="http://www.w3.org/1999/xlink"><clipPath id="a"><path d="m0 0h250v250h-250z"/></clipPath><g clip-path="url(#a)"><path d="m125 236.471c61.564 0 111.471-49.907 111.471-111.471 0-61.5635-49.907-111.4707-111.471-111.4707-61.5637 0-111.4709 49.9072-111.4709 111.4707 0 61.564 49.9072 111.471 111.4709 111.471z" fill="#fff"/><path d="m125 0c-24.723 0-48.8901 7.33112-69.4462 21.0663-20.5562 13.7352-36.5777 33.2575-46.03869 56.0983-9.4609499 22.8404-11.93637 47.9744-7.11321 72.2214 4.82315 24.248 16.7282 46.521 34.2098 64.002 17.4816 17.482 39.7544 29.387 64.0023 34.21 24.247 4.823 49.381 2.348 72.221-7.113 22.841-9.461 42.364-25.483 56.099-46.039s21.066-44.723 21.066-69.446c.048-16.368-3.129-32.5842-9.348-47.7242-6.22-15.1399-15.36-28.9065-26.9-40.5139-11.54-11.6073-25.253-20.828-40.357-27.13564-15.103-6.30763-31.301-9.5786338-47.669-9.62626zm2.119 129.237-13.015 43.886h69.613c.461-.016.921.059 1.353.221.432.161.828.407 1.165.722.338.314.61.693.801 1.113s.297.873.313 1.334v1.15l-6.054 20.884c-.266.988-.861 1.855-1.686 2.46s-1.831.912-2.853.87h-106.538l17.8571-60.836-19.9758 6.053 4.54-13.922 19.9758-6.053 25.1209-85.3514c.277-.9821.874-1.8434 1.697-2.4467.822-.6034 1.823-.9141 2.843-.8826h26.937c.461-.0162.921.0587 1.353.2203.432.1617.828.4069 1.166.7217.337.3149.609.6931.8 1.1131s.297.8735.313 1.3347v1.1501l-21.186 72.0338 19.975-6.053-4.237 14.528z" fill="#345d9d"/></g></svg>

<svg width="250" height="250" viewBox="0 0 250 250" fill="none" xmlns="http://www.w3.org/2000/svg">
<g clip-path="url(#clip0_7_37)">
<path d="M125 236.471C186.564 236.471 236.471 186.564 236.471 125C236.471 63.4365 186.564 13.5293 125 13.5293C63.4363 13.5293 13.5291 63.4365 13.5291 125C13.5291 186.564 63.4363 236.471 125 236.471Z" fill="white"/>
<path d="M125 0C100.277 0 76.1099 7.33112 55.5538 21.0663C34.9976 34.8015 18.9761 54.3238 9.51511 77.1646C0.0541601 100.005 -2.42126 125.139 2.4019 149.386C7.22505 173.634 19.1301 195.907 36.6117 213.388C54.0933 230.87 76.3661 242.775 100.614 247.598C124.861 252.421 149.995 249.946 172.835 240.485C195.676 231.024 215.199 215.002 228.934 194.446C242.669 173.89 250 149.723 250 125V125C250.048 108.632 246.871 92.4158 240.652 77.2758C234.432 62.1359 225.292 48.3693 213.752 36.7619C202.212 25.1546 188.499 15.9339 173.395 9.62626C158.292 3.31863 142.094 0.0476262 125.726 0H125ZM127.119 129.237L114.104 173.123H183.717C184.178 173.107 184.638 173.182 185.07 173.344C185.502 173.505 185.898 173.751 186.235 174.066C186.573 174.38 186.845 174.759 187.036 175.179C187.227 175.599 187.333 176.052 187.349 176.513V177.663L181.295 198.547C181.029 199.535 180.434 200.402 179.609 201.007C178.784 201.612 177.778 201.919 176.756 201.877H70.218L88.0751 141.041L68.0993 147.094L72.6393 133.172L92.6151 127.119L117.736 41.7676C118.013 40.7855 118.61 39.9242 119.433 39.3209C120.255 38.7175 121.256 38.4068 122.276 38.4383H149.213C149.674 38.4221 150.134 38.497 150.566 38.6586C150.998 38.8203 151.394 39.0655 151.732 39.3803C152.069 39.6952 152.341 40.0734 152.532 40.4934C152.723 40.9134 152.829 41.3669 152.845 41.8281V42.9782L131.659 115.012L151.634 108.959L147.397 123.487L127.119 129.237Z" fill="#345D9D"/>
</g>
<defs>
<clipPath id="clip0_7_37">
<rect width="250" height="250" fill="white"/>
</clipPath>
</defs>
</svg>
